X:1
T:Deh, hor foss' io col vago de la luna
T:Orlando Lasso
T:Deh, hor foss' io col vago de la luna
C:Orlando Lasso
%%score [ 1 2 3 4 ]
L:1/8
Q:1/4=110
M:2/2
K:F
V:1 alto1 nm="Canto" snm="C"
V:2 alto2 nm="Alto" snm="A"
V:3 alto nm="Tenore" snm="T"
V:4 bass3 nm="Basso" snm="B"
V:1
 x8 | z2 z2 z2 x2 |[M:4/2][K:treble] B16 | A4 c4 c2 c2 d2 c2 | A2 c4 =B2 c4 A4 | F4 F8 E4- | %6
w: ||Deh,|hor fos- s'io col va- go|de la lu- na A-|dor- men- ta-|
 E4 E4 z4 F4 | G2 A2 B2 A4 G4 ^F2 | G8 z2 G2 B4 | A2 d4 d2 c2 d2 B2 B2 | c4 d4 z4 c4 | %11
w: * to in|qual- che ver- di bo- *|schi, E que-|sta ch'an- zi ve- spro a me fa|se- ra, Con|
 c4 c2 B4 c2 A4 | z2 d2 d2 d2 c2 c2 B2 d2- | d2 c4 B2 A8 | A8 z8 | z8 z4 c4 | %16
w: es- sa e con A- mor,|Con es- sa e con A- mor in|_ quel- la piag-|gia|So-|
 d2 A2 B2 B2 c2 c2 d2 d2 | c8 A4 z2 c2 | d2 c2 B2 A2 G4 z2 G2 | G2 G2 A4 A4 z2 A2 | c4 c4 d4 =B4 | %21
w: la ve- nes- se e stes- s'i- vi u- na|not- te; E'l|dí si stes- se il sol sem-|pre ne l'on- de, E'l|dí si stes- se il|
 c4 A4 B4 F4 | G4 A6 G2 G4- | G4 ^F4 !fermata!G8 |] z16 | z16 |] %26
w: sol sem- pre ne|l'on- * * *|* * de.|||
V:2
 x8 | z2 z2 z2 x2 |[M:4/2][K:treble] F16 | ^F4 G4 A2 A2 B2 G2 | F2 E2 G4 G4 F4 | D4 C4 C8 | %6
w: ||Deh,|hor fos- s'io col va- go|de la lu- na A-|dor- men- ta-|
 C8 z4 D4 | E2 F2 F6 D2 D4 | D6 D2 _E4 D2 F2- | F2 F2 DEFG A2 F2 G2 B2- | B2 A2 B4 z4 A4 | %11
w: to in|qual- che ver- di bo-|schi, E que- sta ch'an-|* zi ve- * * * * spro a me fa|_ se- ra, Con|
 G4 A2 G4 G2 ^F4 | z2 B2 B2 B2 G2 G2 G2 B2 | A6 G2 E8 | ^F8 G4 A2 E2 | F4 D4 z2 G2 A2 A2 | %16
w: es- sa e con A- mor,|Con es- sa e con A- mor in|quel- la piag-|gia So- la ve-|nes- se, So- la ve-|
 ^F4 G4 A2 A2 B2 B2 | A4 G4 z2 ^F2 G4 | B2 G4 F2 D2 E2 D2 D2 | E4 F4 z2 F2 F2 F2 | %20
w: nes- se e stes- s'i- vi u- na|not- te; E'l dí|si stes- se il sol sem- pre ne|l'on- de, E'l dí si|
 E2 E2 A4 A4 G2 G2 | E4 F8 D4 | E4 F4 D4 C4 | D8 E8 |] z16 | z16 |] %26
w: stes- se il sol sem- pre ne|l'on- de, il|sol sem- pre ne|l'on- de.|||
V:3
 x8 | z2 z2 z2 x2 |[M:4/2][K:treble-8] d16 | d4 e4 f2 f2 f2 e2 | c2 c2 d4 e4 c4 | B4 A4 G8 | %6
w: ||Deh,|hor fos- s'io col va- go|de la lu- na A-|dor- men- ta-|
 A8 z4 A4 | c4 d4 c2 B2 A4 | =B4 B4 c4 G2 d2- | d2 c2 Bcde f2 d2 _e2 g2 | f4 B4 z4 f4 | %11
w: to in|qual- che ver- di bo-|schi, E que- sta ch'an-|* zi ve- * * * * spro a me fa|se- ra, Con|
 e4 f2 d4 e2 d4 | z2 f2 f2 f2 e2 e2 d2 g2 | e4 f2 d4 ^c=B c4 | d8 z4 c4 | d2 A2 =B4 c6 A2- | %16
w: es- sa e con A- mor,|Con es- sa e con A- mor in|quel- la piag- * * *|gia So-|la ve- nes- se e stes-|
 A2 d2 d2 d2 f8- | f4 e4 z4 e4 | f2 e2 d2 d2 =B2 c2 c2 B2 | c4 F2 c2 c4 d4 | c2 c2 f6 f2 d2 d2 | %21
w: * s'i- vi u- na not-|* te; E'l|dí si stes- se il sol sem- pre ne|l'on- de, E'l dí si|stes- se il sol sem- pre ne|
 g4 c2 c2 d4 B4 | B4 c4 B4 A2 G2 | A8 c8 |] z16 | z16 |] %26
w: l'on- de, il sol sem-|pre ne l'on- * *|* de.|||
V:4
 x8 | z2 z2 z2 x2 |[M:4/2][K:bass] B,,16 | D,4 C,4 F,2 F,2 B,2 C2 | F,2 A,2 G,4 C,4 F,4 | %5
w: ||Deh,|hor fos- s'io col va- go|de la lu- na A-|
 B,,4 F,4 C,8 | A,,8 z4 D,4 | C,2 F,2 B,,C,D,E, F,2 G,2 D,4 | G,8 z8 | z16 | z8 z4 F,4 | %11
w: dor- men- ta-|to in|qual- che ver- * * * * di bo-|schi,||Con|
 C4 F,2 G,4 C,2 D,4 | z2 B,,2 B,,2 B,,2 C,2 C,2 G,4 | A,4 F,2 G,2 A,8 | D,8 z8 | %15
w: es- sa e con A- mor,|Con es- sa e con A- mor|in quel- la piag-|gia|
 z4 G,4 A,2 E,2 F,4 | D,4 G,2 G,2 F,2 F,2 B,4 | F,4 C4 D4 C4 | B,2 C2 G,2 D,2 G,2 C,2 G,4 | %19
w: So- la ve- nes-|se e stes- s'i- vi u- na not-|te; E'l dí si|stes- se il sol sem- pre ne l'on-|
 C,4 z2 F,2 F,2 F,2 D,2 D,2 | A,4 F,4 D,2 D,2 G,4 | C,4 F,4 B,6 A,2 | G,4 F,4 G,4 _E,4 | D,8 C,8 |] %24
w: de, E'l dí si stes- se il|sol sem- pre ne l'on-|de, il sol _|_ sem- pre ne|l'on- de.|
 z16 | z16 |] %26
w: ||

